X: 3641
T: Omal
O: Greece
M: 4/4
L: 1/8
K: Ephr
Q: 1/4=210
%%MIDI program 65 alto sax
.B2 .B2 .A2 GA|.B2 AG A2 z2|.G2 .G2 .F2 EF|.G2 FE F2 z2|\
.F2 .F2 .E2 DE| F2 ED E4   |D2 E6|
.D2 .G2 .G2 A2| B2 AG A2 z2|.D2 .G2 .G2 A2| B2 AG A2 z2|\
.D2 .G2 .G2 A2| B2 AG A2 z2|.D2 .G2 .G2 A2| B2 AG A2 z2|


